assets/images/icons/delete.svg

<svg width="15" height="15" viewBox="0 0 15 15" fill="none" xmlns="http://www.w3.org/2000/svg">
<path d="M6.25 6.40625C6.50888 6.40625 6.71875 6.61612 6.71875 6.875V10.625C6.71875 10.8839 6.50888 11.0938 6.25 11.0938C5.99112 11.0938 5.78125 10.8839 5.78125 10.625V6.875C5.78125 6.61612 5.99112 6.40625 6.25 6.40625Z" fill="#6A6A6A"/>
<path d="M9.21875 6.875C9.21875 6.61612 9.00888 6.40625 8.75 6.40625C8.49112 6.40625 8.28125 6.61612 8.28125 6.875V10.625C8.28125 10.8839 8.49112 11.0938 8.75 11.0938C9.00888 11.0938 9.21875 10.8839 9.21875 10.625V6.875Z" fill="#6A6A6A"/>
<path fill-rule="evenodd" clip-rule="evenodd" d="M9.96534 1.28466C10.2877 1.60699 10.4688 2.04416 10.4688 2.5V3.28125H13.125C13.3839 3.28125 13.5938 3.49112 13.5938 3.75C13.5938 4.00888 13.3839 4.21875 13.125 4.21875H12.3438V12.5C12.3438 12.9558 12.1627 13.393 11.8403 13.7153C11.518 14.0377 11.0808 14.2188 10.625 14.2188H4.375C3.91916 14.2188 3.48199 14.0377 3.15966 13.7153C2.83733 13.393 2.65625 12.9558 2.65625 12.5V4.21875H1.875C1.61612 4.21875 1.40625 4.00888 1.40625 3.75C1.40625 3.49112 1.61612 3.28125 1.875 3.28125H4.53125V2.5C4.53125 2.04416 4.71233 1.60699 5.03466 1.28466C5.35699 0.962332 5.79416 0.78125 6.25 0.78125H8.75C9.20584 0.78125 9.64301 0.962332 9.96534 1.28466ZM5.69757 1.94757C5.84409 1.80106 6.0428 1.71875 6.25 1.71875H8.75C8.9572 1.71875 9.15591 1.80106 9.30243 1.94757C9.44894 2.09409 9.53125 2.2928 9.53125 2.5V3.28125H5.46875V2.5C5.46875 2.2928 5.55106 2.09409 5.69757 1.94757ZM3.82257 13.0524C3.67606 12.9059 3.59375 12.7072 3.59375 12.5V4.21875H11.4062V12.5C11.4062 12.7072 11.3239 12.9059 11.1774 13.0524C11.0309 13.1989 10.8322 13.2812 10.625 13.2812H4.375C4.1678 13.2812 3.96909 13.1989 3.82257 13.0524Z" fill="#6A6A6A"/>
</svg>

<svg width="15" height="15" fill="none" xmlns="http://www.w3.org/2000/svg"><path d="M6.25 6.406c.259 0 .469.21.469.469v3.75a.469.469 0 1 1-.938 0v-3.75c0-.259.21-.469.469-.469zm2.969.469a.469.469 0 0 0-.938 0v3.75a.469.469 0 1 0 .938 0v-3.75z" fill="#6A6A6A"/><path fill-rule="evenodd" clip-rule="evenodd" d="M9.965 1.285c.323.322.504.76.504 1.215v.781h2.656a.469.469 0 1 1 0 .938h-.781V12.5a1.718 1.718 0 0 1-1.719 1.719h-6.25A1.719 1.719 0 0 1 2.656 12.5V4.219h-.781a.469.469 0 0 1 0-.938h2.656V2.5A1.719 1.719 0 0 1 6.25.781h2.5c.456 0 .893.181 1.215.504zm-4.267.663a.781.781 0 0 1 .552-.23h2.5a.781.781 0 0 1 .781.782v.781H5.47V2.5c0-.207.082-.406.229-.552zM3.823 13.052a.781.781 0 0 1-.23-.552V4.219h7.813V12.5a.781.781 0 0 1-.781.781h-6.25a.781.781 0 0 1-.552-.229z" fill="#6A6A6A"/></svg>
